symbols/web/architecture/materialsymbolsrounded/architecture_wght600gradN25_40px.svg

<svg xmlns="http://www.w3.org/2000/svg" height="40" width="40"><path d="m18.5 19.75-4.833 13.208q0 .042-.209.375l-1.125 1.084q-.416.375-.958.187-.542-.187-.583-.729l-.209-1.542.042-.416 5-13.75q.625.625 1.375 1.021.75.395 1.5.562Zm2.958.042q.792-.209 1.542-.584t1.375-1l5.042 13.709q.041.166 0 .416l-.167 1.542q-.083.542-.604.729-.521.188-.938-.187l-1.166-1.084q-.167-.166-.167-.375Zm-1.416-1.084q-2.209 0-3.771-1.562-1.563-1.563-1.563-3.771 0-1.833 1.042-3.229 1.042-1.396 2.667-1.854V6.167q0-.667.458-1.125.458-.459 1.125-.459t1.146.459q.479.458.479 1.125v2.125q1.625.458 2.687 1.854 1.063 1.396 1.063 3.229 0 2.208-1.563 3.771-1.562 1.562-3.77 1.562Zm0-3.208q.833 0 1.458-.625t.625-1.5q0-.833-.625-1.458t-1.458-.625q-.875 0-1.5.625t-.625 1.458q0 .875.625 1.5t1.5.625Z"/></svg>

<svg xmlns="http://www.w3.org/2000/svg" height="40" width="40"><path d="M18.5 19.75 13.667 32.958Q13.667 33 13.458 33.333L12.333 34.417Q11.917 34.792 11.375 34.604Q10.833 34.417 10.792 33.875L10.583 32.333Q10.583 32.333 10.625 31.917L15.625 18.167Q16.25 18.792 17 19.188Q17.75 19.583 18.5 19.75ZM21.458 19.792Q22.25 19.583 23 19.208Q23.75 18.833 24.375 18.208L29.417 31.917Q29.458 32.083 29.417 32.333L29.25 33.875Q29.167 34.417 28.646 34.604Q28.125 34.792 27.708 34.417L26.542 33.333Q26.375 33.167 26.375 32.958ZM20.042 18.708Q17.833 18.708 16.271 17.146Q14.708 15.583 14.708 13.375Q14.708 11.542 15.75 10.146Q16.792 8.75 18.417 8.292V6.167Q18.417 5.5 18.875 5.042Q19.333 4.583 20 4.583Q20.667 4.583 21.146 5.042Q21.625 5.5 21.625 6.167V8.292Q23.25 8.75 24.312 10.146Q25.375 11.542 25.375 13.375Q25.375 15.583 23.812 17.146Q22.25 18.708 20.042 18.708ZM20.042 15.5Q20.875 15.5 21.5 14.875Q22.125 14.25 22.125 13.375Q22.125 12.542 21.5 11.917Q20.875 11.292 20.042 11.292Q19.167 11.292 18.542 11.917Q17.917 12.542 17.917 13.375Q17.917 14.25 18.542 14.875Q19.167 15.5 20.042 15.5Z"/></svg>
